boxicons/svg/solid/bxs-business.svg

<svg xmlns="http://www.w3.org/2000/svg" width="24" height="24" viewBox="0 0 24 24"><path d="M21,7h-6c-0.553,0-1,0.447-1,1v3h-2V4c0-0.553-0.447-1-1-1H3C2.447,3,2,3.447,2,4v16c0,0.553,0.447,1,1,1h7h1h4h1h5	c0.553,0,1-0.447,1-1V8C22,7.447,21.553,7,21,7z M8,6h2v2H8V6z M6,16H4v-2h2V16z M6,12H4v-2h2V12z M6,8H4V6h2V8z M10,16H8v-2h2V16z M10,12H8v-2h2v1V12z M19,16h-2v-2h2V16z M19,12h-2v-2h2V12z"/></svg>

<svg xmlns="http://www.w3.org/2000/svg" width="24" height="24" viewBox="0 0 24 24"><path d="M21 7h-6a1 1 0 0 0-1 1v3h-2V4a1 1 0 0 0-1-1H3a1 1 0 0 0-1 1v16a1 1 0 0 0 1 1h18a1 1 0 0 0 1-1V8a1 1 0 0 0-1-1zM8 6h2v2H8V6zM6 16H4v-2h2v2zm0-4H4v-2h2v2zm0-4H4V6h2v2zm4 8H8v-2h2v2zm0-4H8v-2h2v2zm9 4h-2v-2h2v2zm0-4h-2v-2h2v2z"/></svg>
